public/navbar-icon-search.svg

<svg width="24" height="24" viewBox="0 0 24 24" fill="none" xmlns="http://www.w3.org/2000/svg">
<path d="M12.425 17.185C9.58002 17.185 7.27002 14.87 7.27002 12.03C7.27002 9.19 9.58502 6.875 12.425 6.875C15.265 6.875 17.58 9.19 17.58 12.03C17.58 14.87 15.265 17.185 12.425 17.185ZM12.425 7.875C10.135 7.875 8.27002 9.74 8.27002 12.03C8.27002 14.32 10.135 16.185 12.425 16.185C14.715 16.185 16.58 14.32 16.58 12.03C16.58 9.74 14.715 7.875 12.425 7.875Z" fill="#878787"/>
<path d="M7.01492 17.94C6.88492 17.94 6.75992 17.89 6.65992 17.795C6.46492 17.6 6.46492 17.285 6.65992 17.09L8.77992 14.975C8.97492 14.78 9.28992 14.78 9.48492 14.975C9.67992 15.17 9.67992 15.485 9.48492 15.68L7.36492 17.795C7.26492 17.895 7.13992 17.94 7.00992 17.94H7.01492Z" fill="#878787"/>
<path d="M12.2149 21.98C6.71486 21.98 2.23486 17.505 2.23486 12C2.23486 6.49502 6.70986 2.02502 12.2149 2.02502C17.7199 2.02502 22.1949 6.50002 22.1949 12.005C22.1949 17.51 17.7199 21.985 12.2149 21.985V21.98ZM12.2149 3.02502C7.26486 3.02502 3.23486 7.05002 3.23486 12C3.23486 16.95 7.25986 20.98 12.2149 20.98C17.1699 20.98 21.1949 16.955 21.1949 12C21.1949 7.04502 17.1649 3.02502 12.2149 3.02502Z" fill="#878787"/>
</svg>

<svg xmlns="http://www.w3.org/2000/svg" width="24" height="24" fill="none" viewBox="0 0 24 24"><path fill="#878787" d="M12.425 17.185A5.16 5.16 0 0 1 7.27 12.03a5.164 5.164 0 0 1 5.155-5.155 5.164 5.164 0 0 1 5.155 5.155 5.164 5.164 0 0 1-5.155 5.155m0-9.31A4.16 4.16 0 0 0 8.27 12.03a4.16 4.16 0 0 0 4.155 4.155 4.16 4.16 0 0 0 4.155-4.155 4.16 4.16 0 0 0-4.155-4.155"/><path fill="#878787" d="M7.015 17.94a.498.498 0 0 1-.355-.85l2.12-2.115a.498.498 0 1 1 .705.705l-2.12 2.115c-.1.1-.225.145-.355.145z"/><path fill="#878787" d="M12.215 21.98c-5.5 0-9.98-4.475-9.98-9.98s4.475-9.975 9.98-9.975 9.98 4.475 9.98 9.98-4.475 9.98-9.98 9.98zm0-18.955c-4.95 0-8.98 4.025-8.98 8.975s4.025 8.98 8.98 8.98 8.98-4.025 8.98-8.98-4.03-8.975-8.98-8.975"/></svg>
